X:1930
T:Bourrée ronde de Sainte-Sévère
R:bourrée à 3 temps
C:trad
A:Berry
O:France
M:3/4
L:1/8
Q:1/4=180
K:C
EF||G4A2|G4A2|GA GF ED|E2C2 EF|G4A2|G4A2|GA GF ED|C4 B,C|
D4E2|D4G2|GA GF ED|E2C2 B,C|D4E2|D4G2|GA GF ED|C4 EF||


